!!! Three Blind Mice
**kern
*clefG2
*M3/4
*k[f#c#]
*D:
2.f#
=1
2.e
=2
[2.d
=3
2.d]
=4
2.f#
=5
2.e
=6
[2.d
=7
2.d]
=8
2.a
=9
2g
4g
=10
[2.f#
=11
2.f#]
=12
2.a
=13
2g
4g
=14
[2.f#
=15
2f#]
4a
=16
2dd
4dd
=17
4cc#
4b
4cc#
=18
2dd
4a
=19
2a
4a
=20
4dd
4dd
4dd
=21
4cc#
4b
4cc#
=21
2dd
4a
=22
4a
4a
4a
=23
2dd
4dd
=24
4cc#
4b
4cc#
=25
4dd
4a
4a
=26
2a
4g
=27
2.f#
=28
2.e
=29
[2.d
=30
2.d]
*-
